!!!COM: Robert Schumann
!!!CNT: Deutsch
!!!TXO: Deutsch
!!!OTL: Der arme Peter I
!!!LYR: Heine
!!!OPR: Ausgewa2hlte Lieder
!!!OPS: Op. 53
!!!ONM: No. 3
!!!ENC: Ben Fuhrman
!!!YOR: Schumann Lieder - Max Friedlaender, ed.,
!!!YOR: New York: C. F. Peters, Vol. 1
!!!ODT: 1840/
!!NB: Vocal melody and text only encoded.
!!NB: First instance of melodic material only encoded.
**kern	**silbe
*clefG2	*
*k[b-]	*
*M3/4	*
!!created: 5/26/06 11:40
!!proofed and posted: 5/26/06 11:40
!!edit time: 25 minutes
=2	=2
4r	.
4r	.
{(8f	{(Der
8g)	|
=3	=3
4.a	Hans
8a	und
4a	die
=4	=4
2a	Gre-
4a	-te
=5	=5
4b-	tan-
(8b-	-zen
8cc)	|
(8b-	her-
8a)	|
=6	=6
2g	-um,
(8e	und
8f)	|
=7	=7
4..g	jauch-
16g	-zen
4g	vor
=8	=8
2g	lau-
4g	-ter
=9	=9
2.a	Freu-
=10	=10
4f}	-de.}
4r	.
{(8f	{Der
8g)	|
=11	=11
2a	Pe-
4a	-tre
=12	=12
2a	steht
4a	so
=13	=13
4b-	still
(8b-	und
8cc)	|
(8b-	so
8a)	|
=14	=14
2g	stumm,
(8e	und
8f)	|
=15	=15
2g	ist
4g	so
=16	=16
(4.g	blass
8f)	|
4g	wie
=17	=17
2.a	Krei-
=18	=18
4f}	-de.}
4r	.
{4a	{Der
=19	=19
4.g	Hans
8a	und
4bn	die
=20	=20
4.cc	Gre-
8bn	-te
4a	sind
=21	=21
4g	Bra2ut'-
(8f#	-gam
8g)	|
(8a	und
8g)	|
=22	=22
2e	Braut,
4g	und
=23	=23
4.g	blit-
8a	-zen
4bn	im
=24	=24
4.cc	Hoch
8bn	zeit
4a	ge
=25	=25
2.g	schmei-
=26	=26
4e}	de.}
4r	.
{(8f	{Der
8g)	|
=27	=27
2a	ar-
4a	-me
=28	=28
4.a	Pe-
8a	-ter
4a	die
=29	=29
(4.b-	Na2-
8cc)	|
(8b-	-gel
8a)	|
=30	=30
2g	kaut
(8e	und
8f)	|
=31	=31
2g	geht
4g	im
=32	=32
4.g	Wer
8g	-kel-
4g	-tag-
=33	=33
2.a	-klei-
=34	=34
4f}	-de.}
4r	.
{(8f	{Der
8g)	|
=35	=35
4.a	Pe-
8a	-ter
4a	spricht
=36	=36
2a	lei-
4a	-se
=37	=37
(4.b-	vor-
8cc)	|
(8b-	sich
8a)	|
=38	=38
2g	her,
(8e	und
8f)	|
=39	=39
4.g	schau-
8g	-et
4g	be-
=40	=40
4.g	-tru2-
8f	-bet
4g	auf
=41	=41
2.a	bei-
=42	=42
4f}	-de:}
4r	.
{4f	{"Ach!
=43	=43
4.dd	wenn
8dd	ich
4dd	nicht
=44	=44
4.cc	gar
8cc	zu
4cc	ver-
=45	=45
2b-	-nu2nf-
4b-	-tig
=46	=46
2a	wa2r',
4f	ich
=47	=47
4.dd	ta2-
8dd	-te
4dd	mir
=48	=48
2cc	was
4cc	zu-
=49	=49
(2cc	-lei-
4b-)	|
=50	=50
4a}	-de."}
4r	.
4r	.
==	==
*-	*-
